X:1
T:Keble, LM
T:John Bacchus Dykes, 1875
T:Keble, LM
T:Public Domain
C:John Bacchus Dykes, 1875
Z:Public Domain
%%score ( 1 2 ) ( 3 4 )
L:1/8
M:3/4
K:G
V:1 treble 
V:2 treble 
V:3 bass 
V:4 bass 
V:1
 [B,D]2 [B,D][CE] [CE]2 D2 | [EG]2 [FA]2 [GB]3 [DB] | [Dd]2 [Dc]2 [DB]2 [DA]2 | [DG]2 (AB) [DA]4 | %4
 [DB]2 [DB][DB] [De]2 [Ed]2 | [Ec]2 [EB]2 [EA]2 [EG]2 | [DF]2 [^CE]2 (D=C)([B,D][EG]) | %7
 G2 z C [B,G]4 |] %8
V:2
 x6 D2 | x8 | x8 | x2 ^C2 x4 | x8 | x8 | x4 D2 x2 | D3 F2 x3 |] %8
V:3
 G,2 G,G, [G,A,]2 [F,A,]2 | [E,B,]2 [D,D]2 [G,D]3 [G,B,] | [F,A,]2 [F,A,]2 G,2 [E,A,]2 | %3
 [E,B,]2 (A,G,) (F,2 C2) | [G,B,]2 [G,B,][=F,A,] [E,^G,]2 [^G,,B,]2 | %5
 [A,,A,]2 [B,,^G,]2 [C,A,]2 [^C,A,]2 | [D,A,]2 [E,G,]2 [F,A,]2 (B,C) | D,2 z A, [G,,G,]4 |] %8
V:4
 G,2 G,G, x4 | x8 | x4 G,2 x2 | x2 A,,2 D,4 | x8 | x8 | x6 G,2 | B,3 D,2 x3 |] %8

